img/ingridients-icons/seaweed.svg

<svg width="32" height="32" viewBox="0 0 32 32" fill="none" xmlns="http://www.w3.org/2000/svg">
<path d="M21.625 5C21.3672 5 21.1562 5.21094 21.1562 5.46875C21.1562 5.72656 21.3672 5.9375 21.625 5.9375C21.8828 5.9375 22.0938 5.72656 22.0938 5.46875C22.0938 5.21094 21.8828 5 21.625 5Z" fill="black"/>
<path d="M27.5312 26.5625H24.8922C24.9906 26.3891 25.0469 26.1922 25.0469 25.9813V24.8844C25.0469 24.7156 25.1687 24.5984 25.3422 24.5984H26.7531C27.4422 24.5984 28 24.0313 28 23.3328C28 21.9969 27.4797 20.7453 26.5375 19.7984C25.7453 19.0063 24.4094 19.5828 24.4094 20.6797C24.4094 20.8484 24.2734 20.9891 24.1 20.9891H22.6891C22.5344 20.9891 22.3844 21.0172 22.2438 21.0734L22.0984 20.675C22.0422 20.5156 22.1219 20.3375 22.2812 20.2813L23.3125 19.9063C23.9594 19.6719 24.2922 18.9547 24.0578 18.3078L23.6828 17.2766C23.6266 17.1172 23.7062 16.9391 23.8656 16.8828C24.9109 16.5031 24.9719 15.0547 23.9641 14.5812C22.7547 14.0187 21.4 13.9578 20.1437 14.4125C19.4969 14.6469 19.1641 15.3641 19.3984 16.0109L19.7734 17.0422C19.8297 17.2016 19.75 17.3797 19.5906 17.4359L18.9531 17.6656C18.9578 17.3422 18.8359 17.0188 18.5875 16.775L17.8094 15.9969C17.6875 15.875 17.6875 15.6828 17.8094 15.5609L18.5875 14.7828C19.075 14.2953 19.075 13.5078 18.5875 13.0203C17.65 12.0828 16.3984 11.5625 15.0625 11.5625C13.9422 11.5625 13.4031 12.9125 14.1812 13.6906C14.3031 13.8125 14.3031 14.0047 14.1812 14.1266L13.4031 14.9047C12.9156 15.3922 12.9156 16.1797 13.4031 16.6672L14.1812 17.4453C14.3031 17.5672 14.3031 17.7594 14.1812 17.8812L13.8906 18.1719C13.7547 18.0172 13.5813 17.8953 13.3797 17.8203L12.3484 17.4453C12.2688 17.4172 12.2078 17.3609 12.175 17.2859C12.1422 17.2109 12.1375 17.1266 12.1656 17.0516L12.5406 16.0203C12.775 15.3734 12.4422 14.6609 11.7953 14.4219C10.5438 13.9672 9.18438 14.0234 7.975 14.5906C6.97188 15.0594 7.03281 16.5078 8.07344 16.8875C8.23281 16.9438 8.31719 17.1219 8.25625 17.2813L7.88125 18.3125C7.64688 18.9594 7.97969 19.6719 8.62656 19.9109L9.65781 20.2859C9.81719 20.3422 9.90156 20.5203 9.84062 20.6797L9.69531 21.0734C9.55469 21.0172 9.4 20.9891 9.25 20.9891H7.89062C7.72187 20.9891 7.58125 20.8531 7.58125 20.6797C7.58125 19.5828 6.24531 19.0063 5.45312 19.7984C4.53437 20.7266 4 22.0203 4 23.3469C4 24.0359 4.55781 24.5938 5.24688 24.5938H6.60625C6.77969 24.5938 6.90625 24.7156 6.90625 24.8797V25.9766C6.90625 26.1875 6.95781 26.3844 7.05156 26.5578H4.46875C4.21094 26.5578 4 26.7688 4 27.0266C4 27.2844 4.21094 27.4953 4.46875 27.4953C5.36875 27.4953 26.2375 27.4953 27.5312 27.4953C27.7891 27.4953 28 27.2844 28 27.0266C28 26.7688 27.7891 26.5625 27.5312 26.5625ZM10.0375 26.5625C9.81719 26.3797 9.54063 26.2813 9.25469 26.2813H8.15781C7.98437 26.2813 7.84375 26.1453 7.84375 25.9813V24.8844C7.84375 24.1953 7.3 23.6609 6.60625 23.6609H5.24688C5.07812 23.6609 4.9375 23.525 4.9375 23.3516C4.9375 22.2688 5.36875 21.2188 6.12813 20.4641C6.32031 20.2719 6.65312 20.4078 6.65312 20.6797C6.65312 21.3688 7.21094 21.9266 7.9 21.9266L9.25937 21.9219C9.35312 21.9219 9.44219 21.9688 9.50313 22.0391C9.51719 22.0719 9.53594 22.1047 9.55937 22.1328C9.57344 22.1656 9.57812 22.2031 9.57812 22.2406V23.3281C9.57812 24.0266 10.1313 24.5938 10.8109 24.5938H11.9078C12.0766 24.5938 12.2031 24.7156 12.2031 24.8797V25.9766C12.2031 26.1875 12.2547 26.3844 12.3531 26.5578H10.0375V26.5625ZM14.5609 26.2813H13.4641C13.2906 26.2813 13.1453 26.1453 13.1453 25.9813V24.8844C13.1453 24.1953 12.6062 23.6609 11.9125 23.6609H10.8156C10.6562 23.6609 10.5203 23.5109 10.5203 23.3328V22.2359C10.5203 22.0859 10.4922 21.9406 10.4406 21.8047L10.7313 21.0031C10.9656 20.3563 10.6328 19.6438 9.98594 19.4047L8.95469 19.0297C8.79531 18.9734 8.71094 18.7953 8.77188 18.6359L9.14688 17.6047C9.38125 16.9578 9.04844 16.2453 8.40156 16.0063C8.14375 15.9125 8.125 15.5563 8.37813 15.4391C9.3625 14.9797 10.4641 14.9328 11.4813 15.3031C11.6406 15.3594 11.725 15.5375 11.6641 15.6969L11.2891 16.7281C11.1766 17.0422 11.1906 17.3797 11.3312 17.6797C11.4719 17.9797 11.7203 18.2094 12.0344 18.3219L13.0656 18.6969C13.1453 18.725 13.2063 18.7859 13.2437 18.8609C12.9344 19.3438 12.9906 19.9953 13.4125 20.4125L14.1906 21.1906C14.3125 21.3125 14.3125 21.5047 14.1906 21.6266L13.4125 22.4047C12.925 22.8922 12.925 23.6797 13.4125 24.1672L14.6406 25.3953C14.5562 25.6578 14.5563 25.9391 14.6547 26.2109L14.6828 26.2906C14.6406 26.2859 14.5984 26.2813 14.5609 26.2813ZM15.2453 24.6734L14.0688 23.4969C13.9469 23.375 13.9469 23.1828 14.0688 23.0609L14.8469 22.2828C15.3344 21.7953 15.3344 21.0078 14.8469 20.5203L14.0688 19.7422C13.9469 19.6203 13.9469 19.4281 14.0688 19.3063L14.8469 18.5281C15.3344 18.0406 15.3344 17.2531 14.8469 16.7656C14.1344 16.0156 13.9797 15.9922 13.9797 15.7719C13.9797 15.6875 14.0125 15.6125 14.0688 15.5563L14.8469 14.7781C15.3344 14.2906 15.3344 13.5031 14.8469 13.0156C14.6547 12.8234 14.7906 12.4906 15.0625 12.4906C16.1453 12.4906 17.1672 12.9125 17.9313 13.6813C18.0531 13.8031 18.0531 13.9953 17.9313 14.1172L17.1531 14.8953C16.6656 15.3828 16.6656 16.1703 17.1531 16.6578L17.9313 17.4359C18.0531 17.5578 18.0531 17.75 17.9313 17.8719L17.1531 18.65C16.6656 19.1375 16.6656 19.925 17.1531 20.4125L17.6922 20.9516L16.975 21.2141C16.6609 21.3266 16.4125 21.5563 16.2719 21.8563C16.1312 22.1563 16.1172 22.4938 16.2297 22.8078L16.6047 23.8391C16.6609 23.9984 16.5813 24.1766 16.4219 24.2328L15.3906 24.6078C15.3438 24.6266 15.2922 24.65 15.2453 24.6734ZM18.0156 19.9438L17.8187 19.7469C17.7062 19.6344 17.6969 19.4563 17.7953 19.3344C17.8187 19.4094 17.8141 19.3906 18.0156 19.9438ZM19.6328 24.3922L20.0078 25.4234C20.0641 25.5828 19.9844 25.7609 19.825 25.8172L18.7938 26.1922C18.5875 26.2672 18.4094 26.3938 18.2687 26.5625H15.7797L15.5312 25.8828C15.475 25.7234 15.5547 25.5453 15.7141 25.4891L16.7453 25.1141C17.3922 24.8797 17.725 24.1625 17.4906 23.5156L17.1156 22.4844C17.0875 22.4094 17.0922 22.325 17.125 22.25C17.1578 22.175 17.2234 22.1188 17.2984 22.0906L18.3297 21.7156C18.4891 21.6594 18.6297 21.5703 18.7516 21.4578L18.7562 21.4531C18.7609 21.4484 18.7656 21.4438 18.7703 21.4391C19.1219 21.0969 19.2438 20.5813 19.075 20.1219L18.7 19.0906C18.6438 18.9313 18.7234 18.7531 18.8828 18.6969L19.9141 18.3219C20.5609 18.0875 20.8937 17.375 20.6594 16.7234L20.2844 15.6922C20.2281 15.5328 20.3078 15.3547 20.4672 15.2984C21.4844 14.9281 22.5859 14.975 23.5703 15.4344C23.8188 15.5516 23.8047 15.9078 23.5469 16.0016C22.9 16.2359 22.5672 16.9484 22.8016 17.5953L23.1766 18.6266C23.2328 18.7859 23.1531 18.9641 22.9938 19.0203L21.9625 19.3953C21.3156 19.6297 20.9828 20.3469 21.2172 20.9938L21.5453 21.8891C21.55 21.9594 21.5734 22.0297 21.6109 22.0906C21.6297 22.2313 21.55 22.3672 21.4094 22.4188L20.3781 22.7938C19.7312 23.0328 19.3984 23.7453 19.6328 24.3922ZM24.1094 24.8797V25.9766C24.1094 26.15 23.9406 26.2297 23.7859 26.2297H22.6891C22.4125 26.2297 22.1359 26.3469 21.9016 26.5578H20.4156C20.875 26.2484 21.0906 25.6531 20.8891 25.1L20.5141 24.0688C20.4578 23.9094 20.5375 23.7313 20.6969 23.675L21.7281 23.3C22.3 23.0938 22.6141 22.5172 22.5344 21.9594C22.5812 21.9359 22.6328 21.9172 22.6844 21.9172H24.0953C24.7844 21.9172 25.3422 21.3641 25.3422 20.675C25.3422 20.3984 25.675 20.2625 25.8672 20.4594C26.6406 21.2234 27.0625 22.2453 27.0625 23.3281C27.0625 23.5016 26.9172 23.6563 26.7531 23.6563H25.3422C24.6484 23.6563 24.1094 24.1953 24.1094 24.8797Z" fill="black"/>
<path d="M18.3438 5.9375C17.3078 5.9375 16.4688 6.77656 16.4688 7.8125C16.4688 8.84844 17.3078 9.6875 18.3438 9.6875C19.3797 9.6875 20.2188 8.84844 20.2188 7.8125C20.2188 6.77656 19.3797 5.9375 18.3438 5.9375ZM18.3438 8.75C17.8281 8.75 17.4062 8.32812 17.4062 7.8125C17.4062 7.29688 17.8281 6.875 18.3438 6.875C18.8594 6.875 19.2812 7.29688 19.2812 7.8125C19.2812 8.32812 18.8594 8.75 18.3438 8.75Z" fill="black"/>
<path d="M20.6875 10.625C19.9141 10.625 19.2812 11.2578 19.2812 12.0312C19.2812 12.8047 19.9141 13.4375 20.6875 13.4375C21.4609 13.4375 22.0938 12.8047 22.0938 12.0312C22.0938 11.2578 21.4609 10.625 20.6875 10.625ZM20.6875 12.5C20.4297 12.5 20.2188 12.2891 20.2188 12.0312C20.2188 11.7734 20.4297 11.5625 20.6875 11.5625C20.9453 11.5625 21.1562 11.7734 21.1562 12.0312C21.1562 12.2891 20.9453 12.5 20.6875 12.5Z" fill="black"/>
</svg>

<svg width="32" height="32" fill="none" xmlns="http://www.w3.org/2000/svg"><path d="M21.625 5a.47.47 0 00-.469.469.47.47 0 00.469.468.47.47 0 00.469-.468.47.47 0 00-.469-.469zm5.906 21.563h-2.639a1.17 1.17 0 00.155-.582v-1.097c0-.168.122-.286.295-.286h1.411c.69 0 1.247-.567 1.247-1.265 0-1.336-.52-2.588-1.462-3.535-.793-.792-2.129-.215-2.129.882a.31.31 0 01-.309.31h-1.41c-.156 0-.306.027-.446.083l-.146-.398a.308.308 0 01.183-.394l1.032-.375c.646-.234.98-.951.745-1.598l-.375-1.031a.308.308 0 01.183-.394c1.045-.38 1.106-1.828.098-2.302a4.978 4.978 0 00-3.82-.168c-.647.234-.98.951-.746 1.598l.375 1.031a.307.307 0 01-.182.394l-.638.23a1.218 1.218 0 00-.366-.891l-.778-.778a.306.306 0 010-.436l.778-.778a1.245 1.245 0 000-1.763 4.953 4.953 0 00-3.524-1.457c-1.12 0-1.66 1.35-.882 2.128a.306.306 0 010 .436l-.778.778a1.245 1.245 0 000 1.762l.778.778a.306.306 0 010 .436l-.29.29a1.265 1.265 0 00-.511-.35l-1.032-.376a.292.292 0 01-.173-.16.313.313 0 01-.01-.233l.376-1.032a1.25 1.25 0 00-.746-1.598 4.958 4.958 0 00-3.82.169c-1.003.468-.942 1.917.098 2.296.16.057.244.235.183.394l-.375 1.032a1.25 1.25 0 00.746 1.598l1.03.375c.16.056.245.234.184.394l-.146.393a1.213 1.213 0 00-.445-.084H7.89a.31.31 0 01-.309-.31c0-1.096-1.336-1.673-2.128-.88A5.083 5.083 0 004 23.346c0 .689.558 1.247 1.247 1.247h1.36c.173 0 .3.122.3.286v1.097c0 .21.05.407.145.58H4.469a.47.47 0 00-.469.47c0 .257.21.468.469.468H27.53a.466.466 0 100-.933zm-17.493 0a1.224 1.224 0 00-.783-.282H8.158a.308.308 0 01-.314-.3v-1.097c0-.689-.544-1.223-1.238-1.223h-1.36a.309.309 0 01-.309-.31 4.09 4.09 0 011.191-2.887.308.308 0 01.525.216c0 .689.558 1.247 1.247 1.247l1.36-.005a.33.33 0 01.243.117.383.383 0 00.056.094c.014.033.02.07.02.108v1.087c0 .699.552 1.266 1.232 1.266h1.097c.169 0 .295.122.295.286v1.097c0 .21.052.407.15.58h-2.316v.006zm4.523-.282h-1.097c-.173 0-.319-.136-.319-.3v-1.097c0-.689-.539-1.223-1.232-1.223h-1.097c-.16 0-.296-.15-.296-.328v-1.097c0-.15-.028-.295-.08-.431l.291-.802a1.25 1.25 0 00-.745-1.598l-1.031-.375a.304.304 0 01-.183-.394l.375-1.031a1.25 1.25 0 00-.745-1.599.306.306 0 01-.024-.567 4.029 4.029 0 013.103-.136c.16.056.244.234.183.394l-.375 1.031a1.24 1.24 0 00.745 1.594l1.032.375c.08.028.14.089.178.164a1.244 1.244 0 00.168 1.552l.779.778a.306.306 0 010 .436l-.779.778a1.245 1.245 0 000 1.762l1.229 1.228c-.085.263-.085.544.014.816l.028.08a1.15 1.15 0 00-.122-.01zm.684-1.608l-1.176-1.176a.306.306 0 010-.436l.778-.778a1.245 1.245 0 000-1.763l-.778-.778a.306.306 0 010-.436l.778-.778a1.245 1.245 0 000-1.762c-.713-.75-.867-.774-.867-.994a.3.3 0 01.089-.216l.778-.778a1.245 1.245 0 000-1.762.308.308 0 01.216-.525 4.02 4.02 0 012.868 1.19.306.306 0 010 .436l-.778.778a1.245 1.245 0 000 1.763l.778.778a.306.306 0 010 .436l-.778.778a1.245 1.245 0 000 1.763l.54.539-.718.262a1.24 1.24 0 00-.745 1.594l.375 1.031a.308.308 0 01-.183.394l-1.031.375a2.041 2.041 0 00-.146.065zm2.77-4.73l-.196-.196a.31.31 0 01-.024-.413c.024.075.02.057.22.61zm1.618 4.45l.375 1.03a.308.308 0 01-.183.394l-1.031.375a1.225 1.225 0 00-.525.37h-2.49l-.248-.68a.308.308 0 01.183-.393l1.031-.375c.647-.234.98-.951.746-1.598l-.375-1.032a.305.305 0 01.183-.394l1.03-.374c.16-.057.3-.146.423-.258l.004-.005.014-.014c.352-.342.474-.858.305-1.317L18.7 19.09a.308.308 0 01.183-.394l1.031-.375c.647-.235.98-.947.745-1.599l-.375-1.03a.308.308 0 01.183-.395 4.029 4.029 0 013.103.136.307.307 0 01-.023.568c-.647.234-.98.946-.745 1.593l.375 1.032a.308.308 0 01-.183.393l-1.032.375c-.646.235-.98.952-.745 1.599l.328.895c.005.07.028.14.066.202a.305.305 0 01-.202.328l-1.03.375a1.25 1.25 0 00-.746 1.598zm4.476.487v1.097c0 .173-.168.253-.323.253h-1.097c-.276 0-.553.117-.787.328h-1.486c.459-.31.675-.905.473-1.458l-.375-1.031a.308.308 0 01.183-.394l1.031-.375a1.24 1.24 0 00.806-1.34.343.343 0 01.15-.043h1.411c.69 0 1.247-.553 1.247-1.242 0-.277.333-.413.525-.216a4.005 4.005 0 011.195 2.87c0 .173-.145.327-.309.327h-1.41c-.695 0-1.234.54-1.234 1.224zM18.344 5.938a1.874 1.874 0 10-.001 3.748 1.874 1.874 0 000-3.748zm0 2.812a.94.94 0 01-.938-.938.94.94 0 01.938-.937.94.94 0 01.937.938.94.94 0 01-.937.937z" fill="#000"/><path d="M20.688 10.625a1.41 1.41 0 00-1.407 1.406 1.41 1.41 0 001.407 1.406 1.41 1.41 0 001.406-1.406 1.41 1.41 0 00-1.407-1.406zm0 1.875a.47.47 0 01-.47-.469.47.47 0 01.47-.469.47.47 0 01.468.47.47.47 0 01-.468.468z" fill="#000"/></svg>
